src/assets/logo.svg

<svg width="280" height="24" viewBox="0 0 280 24" fill="none" xmlns="http://www.w3.org/2000/svg">
<path fill-rule="evenodd" clip-rule="evenodd" d="M47.6226 12.0055C47.6245 14.3689 46.9124 16.6797 45.5763 18.6457C44.2402 20.6118 42.3401 22.1446 40.1165 23.0504C37.8929 23.9561 35.4456 24.1941 33.0842 23.7341C30.7227 23.2742 28.5533 22.1371 26.8503 20.4666C25.1473 18.7961 23.9873 16.6672 23.5169 14.3493C23.3822 13.6857 23.3058 13.0151 23.287 12.3447C23.1991 15.2538 21.9835 18.0257 19.8811 20.0897C17.697 22.2339 14.7348 23.4384 11.646 23.4384H0V0.572239H11.646C14.7348 0.572239 17.697 1.77678 19.8811 3.9209C21.9858 5.98715 23.2017 8.76285 23.2873 11.6755C23.3291 10.2295 23.6384 8.79537 24.2078 7.44503C25.1287 5.26134 26.6885 3.39482 28.6901 2.08158C30.6917 0.768345 33.0451 0.0673828 35.4525 0.0673828C38.6769 0.0724144 41.768 1.33153 44.0489 3.56899C46.3299 5.80644 47.6149 8.83996 47.6226 12.0055ZM78.1449 0.571657L74.8355 12.5287L71.5358 0.571657H65.4604L62.1122 12.5669L58.8028 0.571657H49.4277L57.6964 23.4378H65.4604L68.5078 14.1675L71.5358 23.4378H79.2998L87.52 0.571657H78.1449ZM112.074 0.571657V23.4378H103.242V15.2536H97.7395V23.4378H88.9079V0.571657H97.7395V8.75587H103.252V0.571657H112.074ZM115.383 0.571657V23.4378H124.205V0.571657H115.383ZM143.518 16.8924V23.4378H127.514V0.571657H136.346V16.9305L143.518 16.8924ZM154.543 9.2608V7.079L161.715 7.11709V0.571657H145.721V23.4378H161.715V16.8924H154.543V14.7106H160.065V9.2608H154.543Z" fill="url(#paint0_linear_61336:1529)"/>
<path d="M189.646 0.714581L186.502 0.247681C186.405 0.247681 186.308 0.247706 186.308 0.333454L184.968 2.01985C184.9 2.13136 184.869 2.26154 184.881 2.39139C184.881 2.48666 184.784 2.67722 184.687 2.58195L183.639 2.30567C183.445 2.30567 183.26 2.30567 183.163 2.4867L178.874 7.91742C178.776 8.0127 178.679 8.01268 178.495 8.01268L176.874 7.26002C176.804 7.21373 176.721 7.18902 176.637 7.18902C176.552 7.18902 176.469 7.21373 176.399 7.26002L175.535 7.82211C175.465 7.86965 175.382 7.89515 175.297 7.89515C175.212 7.89515 175.129 7.86965 175.059 7.82211L174.681 7.63155C174.618 7.60409 174.55 7.58976 174.482 7.58945C174.413 7.58914 174.345 7.60286 174.282 7.62975C174.219 7.65663 174.162 7.69612 174.116 7.74564C174.069 7.79517 174.034 7.85366 174.011 7.91742L173.73 9.2227C173.693 9.36137 173.701 9.50769 173.751 9.64215C173.801 9.77661 173.892 9.89281 174.011 9.97536L174.778 10.4422L176.777 11.6618L177.748 12.2238C177.882 12.299 178.037 12.3304 178.191 12.3132C178.344 12.2961 178.488 12.2314 178.602 12.1286L180.223 10.728C180.368 10.6416 180.54 10.6079 180.708 10.6328L181.183 10.909C181.368 11.0043 181.562 11.0043 181.659 10.8138L182.513 10.0706C182.572 10.008 182.65 9.96522 182.735 9.94814C182.82 9.93106 182.909 9.94058 182.989 9.97536L184.231 10.5375C184.425 10.6328 184.609 10.5375 184.803 10.4422L185.376 9.69908L189.666 4.26835C189.85 3.98252 189.763 3.61094 189.374 3.61094L188.404 3.42992C188.21 3.42992 188.122 3.14409 188.21 2.95354L189.743 1.18142C189.937 0.990871 189.831 0.714581 189.646 0.714581Z" fill="white"/>
<path d="M175.38 11.6617C175.283 11.5664 175.186 11.6616 175.186 11.7569L175.661 12.9669V13.2527L175.283 14.8438C175.276 14.8941 175.282 14.9451 175.299 14.993C175.316 15.0409 175.343 15.0844 175.38 15.1202L176.515 15.9681C176.571 16.0098 176.639 16.0325 176.709 16.0325C176.779 16.0325 176.848 16.0098 176.903 15.9681L178.136 14.9391C178.174 14.9031 178.22 14.8759 178.271 14.8594C178.321 14.8429 178.374 14.8376 178.427 14.8438L179.757 14.6533C179.854 14.6533 179.854 14.558 179.757 14.4628L175.38 11.6617Z" fill="white"/>
<path d="M174.962 15.6824C174.946 15.6607 174.925 15.6431 174.901 15.631C174.876 15.6188 174.849 15.6125 174.822 15.6125C174.794 15.6125 174.767 15.6188 174.743 15.631C174.718 15.6431 174.697 15.6607 174.681 15.6824L173.711 16.1492C173.685 16.1492 173.66 16.1593 173.642 16.1771C173.624 16.195 173.613 16.2193 173.613 16.2445L171.517 21.2941H171.614L172.09 21.1131V21.2084L170.566 23.6379C170.566 23.7332 170.566 23.7332 170.653 23.7332L175.991 18.3978C176.088 18.3978 176.088 18.3025 176.088 18.2072L176.185 16.8066C176.185 16.7114 176.185 16.6161 176.088 16.6161L174.962 15.6824Z" fill="white"/>
<path d="M216.597 16.8927V23.4381H195.091C195.091 23.4381 205.32 12.4052 206.669 9.81368C207.736 7.77478 206.601 6.54573 205.562 6.54573C204.524 6.54573 203.359 7.1269 203.359 9.81368L195.159 9.2706C195.159 4.16382 198.808 0.00976562 205.562 0.00976562C212.074 0.00976562 216.044 3.38254 216.044 8.18444C216.044 11.1761 213.423 14.587 210.531 16.9022L216.597 16.8927Z" fill="white"/>
<path d="M240.86 12.0054C240.86 18.6175 236.405 24.0006 229.825 24.0006C223.245 24.0006 218.8 18.6175 218.8 12.0054C218.8 5.39322 223.245 0.0196533 229.825 0.0196533C236.405 0.0196533 240.86 5.33605 240.86 12.0054Z" fill="white"/>
<path d="M264.569 16.8927V23.4381H243.063C243.063 23.4381 253.292 12.4052 254.641 9.81368C255.708 7.77478 254.573 6.54573 253.534 6.54573C252.496 6.54573 251.331 7.1269 251.331 9.81368L243.131 9.2706C243.131 4.16382 246.78 0.00976562 253.534 0.00976562C260.047 0.00976562 264.016 3.38254 264.016 8.18444C264.016 11.1761 261.396 14.587 258.503 16.9022L264.569 16.8927Z" fill="white"/>
<path d="M280 0V23.4378H271.178V8.19369L267.296 8.67007V2.09602L280 0Z" fill="white"/>
<defs>
<linearGradient id="paint0_linear_61336:1529" x1="-3.30879e-06" y1="0.634187" x2="50.8161" y2="88.2688" gradientUnits="userSpaceOnUse">
<stop stop-color="#FF008E"/>
<stop offset="1" stop-color="#FFCD1E"/>
</linearGradient>
</defs>
</svg>

<svg xmlns="http://www.w3.org/2000/svg" width="280" height="24" fill="none" xmlns:v="https://vecta.io/nano"><path fill-rule="evenodd" d="M47.623 12.006c.002 2.363-.71 4.674-2.046 6.64s-3.236 3.499-5.46 4.405a12.38 12.38 0 0 1-7.032.684c-2.362-.46-4.531-1.597-6.234-3.268s-2.863-3.799-3.333-6.117a11.73 11.73 0 0 1-.23-2.005c-.088 2.909-1.303 5.681-3.406 7.745-2.184 2.144-5.146 3.349-8.235 3.349H0V.572h11.646c3.089 0 6.051 1.205 8.235 3.349 2.105 2.066 3.321 4.842 3.406 7.755a11.76 11.76 0 0 1 .921-4.23c.921-2.184 2.481-4.05 4.482-5.363S33.045.067 35.453.067c3.224.005 6.316 1.264 8.596 3.502s3.566 5.271 3.574 8.437zM78.145.572l-3.309 11.957-3.3-11.957H65.46l-3.348 11.995L58.803.572h-9.375l8.269 22.866h7.764l3.047-9.27 3.028 9.27H79.3L87.52.572h-9.375zm33.929 0v22.866h-8.832v-8.184H97.74v8.184h-8.832V.572h8.832v8.184h5.512V.572h8.822zm3.309 0v22.866h8.822V.572h-8.822zm28.135 16.321v6.545h-16.004V.572h8.832v16.359l7.172-.038zm11.025-7.632V7.079l7.172.038V.572h-15.994v22.866h15.994v-6.545h-7.172v-2.182h5.522v-5.45h-5.522z" fill="url(#A)"/><path d="M189.646.715l-3.144-.467c-.097 0-.194 0-.194.086l-1.34 1.686a.61.61 0 0 0-.087.372c0 .095-.097.286-.194.191l-1.048-.276c-.194 0-.379 0-.476.181l-4.289 5.431c-.098.095-.195.095-.379.095l-1.621-.753a.43.43 0 0 0-.475 0l-.864.562a.42.42 0 0 1-.238.073.43.43 0 0 1-.238-.073l-.378-.191c-.063-.027-.131-.042-.199-.042a.51.51 0 0 0-.2.04.49.49 0 0 0-.271.288l-.281 1.305a.69.69 0 0 0 .021.419c.05.134.141.251.26.333l.767.467 1.999 1.22.971.562a.74.74 0 0 0 .443.089c.153-.017.297-.082.411-.185l1.621-1.401a.74.74 0 0 1 .485-.095l.475.276c.185.095.379.095.476-.095l.854-.743a.42.42 0 0 1 .222-.122c.085-.017.174-.008.254.027l1.242.562c.194.095.378 0 .572-.095l.573-.743 4.29-5.431c.184-.286.097-.657-.292-.657l-.97-.181c-.194 0-.282-.286-.194-.476l1.533-1.772c.194-.191.088-.467-.097-.467zM175.38 11.662c-.097-.095-.194 0-.194.095l.475 1.21v.286l-.378 1.591c-.007.05-.001.101.016.149a.33.33 0 0 0 .081.127l1.135.848c.056.042.124.064.194.064s.139-.023.194-.064l1.233-1.029a.36.36 0 0 1 .291-.096l1.33-.191c.097 0 .097-.095 0-.191l-4.377-2.801zm-.418 4.02c-.016-.022-.037-.039-.061-.051a.18.18 0 0 0-.079-.018c-.028 0-.055.006-.079.018a.18.18 0 0 0-.062.051l-.97.467c-.026 0-.051.01-.069.028s-.029.042-.029.067l-2.096 5.05h.097l.476-.181v.095l-1.524 2.429c0 .095 0 .095.087.095l5.338-5.335c.097 0 .097-.095.097-.191l.097-1.401c0-.095 0-.191-.097-.191l-1.126-.934zm41.635 1.211v6.545h-21.506s10.229-11.033 11.578-13.624c1.067-2.039-.068-3.268-1.107-3.268s-2.203.581-2.203 3.268l-8.2-.543c0-5.107 3.649-9.261 10.403-9.261 6.512 0 10.482 3.373 10.482 8.175 0 2.992-2.621 6.403-5.513 8.718l6.066-.009zm24.263-4.888c0 6.612-4.455 11.995-11.035 11.995S218.8 18.618 218.8 12.005 223.245.02 229.825.02s11.035 5.316 11.035 11.986zm23.709 4.888v6.545h-21.506s10.229-11.033 11.578-13.624c1.067-2.039-.068-3.268-1.107-3.268s-2.203.581-2.203 3.268l-8.2-.543c0-5.107 3.649-9.261 10.403-9.261 6.513 0 10.482 3.373 10.482 8.175 0 2.992-2.62 6.403-5.513 8.718l6.066-.009zM280 0v23.438h-8.822V8.194l-3.882.476V2.096L280 0z" fill="#fff"/><defs><linearGradient id="A" x1="0" y1=".634" x2="50.816" y2="88.269" gradientUnits="userSpaceOnUse"><stop stop-color="#ff008e"/><stop offset="1" stop-color="#ffcd1e"/></linearGradient></defs></svg>
